X:1
T:Concerto from Op.85
T:E.Elgar Arr. thefoilist
T:Violoncello Solo I
L:1/8
Q:1/4=56
M:4/4
K:G
V:1 bass nm="Violoncello" snm="Vlc."
V:1
"^Adagio"!ff! [G,,E,B,]4 [E,,B,,G,E]4 | [C,,G,,E,D]CB,C [^D,,B,,F,A,-]2 A,2- | %2
 A,G,F,{/A,}G,!>(! C,4-!>)! | C,B,,A,,{/D,}C,!p!!<(! !-(!B,,4!<)! |!ff! !-)!E,,4 z4 | %5
 z4 z3!p! B,,/^C,/ | ^D,/E,/F,-!<(! F,^D,/E,/ F,/G,/A,- A,F,/G,/!<)! | %7
[K:tenor] A,B,!>(!CD ^DE^EF-!>)! |[M:9/8]!pp! F z z3 z3 z | z9 | z9 | z9 | z9 | z9 | %14
!p! (F2 G) F2 A B2 A | (G2 E) D2 E C2 B, | (A,2 B,) A,2 C D2 C | (B,2 G,) F,2 G, E,2 D, | %18
[K:bass] (^C,2 D,)!<(! ^C,2 E, F,2 E,!<)! | (D,2 B,,) ^A,,2 B,, G,,2 F,, | B,,6- B,,3- | %21
 B,,6!<(! (E,2 F,)!<)! | (C2 A,) (C2 A,) (A,2 E,) | (^D,2 E,) (B,2 A,) G,2- (G,/E/-) | %24
 E6[K:tenor] A3 | B,6!<(! (^D2- ^D/)E/!<)! |!ff! (E2 F) (E2 G) (A2 G) | %27
 (F2 D) (C2 D)[K:treble] (B2 A) | (G2 A) (G2 B) (c2 B) | (A2 F) (E2 F)!<(! (^D2 B)!<)! | %30
 B3 A3 ^A3 | (B/B,/)^C/^D/E/F/ G/=A/!<(!B/^c/^d/e/ f/g/a/b/c'/^d'/!<)! | e'2 z z3 z3 | z9 | z9 | %35
 z9 | z9 | z9 |[K:tenor]!mf! (F2 G) F2 A B2 A | (G2 E) D2 E C2 B, | (A,2 B,) A,2 C D2 C | %41
!>(! (B,2 G,) F,2 G, E,2 D,!>)! |[K:bass] (C,2 D,) C,2 E, F,2 E, | (D,2 B,,) A,,2 B,, G,,2 F,, | %44
 B,,2 z G,,2 z F,,2 z |!p! E,,6- E,,2 z | z9 |[M:12/8][K:tenor] (E3 ^D3)!>(! (E3 ^D2) A,!>)! | %48
 G,2 z3 z z2 z4 |!p! (G3 F3) (G3 F3) |[K:treble]!pp! (Bd>)(^c f2) e (d2 B) (^A2 G) | %51
 (F3- F2) G (F2 B,)[K:bass] (^A,2 G,) | F,2 z (=A,3 F,3) (A,3 | F,6-) (F,3 ^^F,3) | %54
[K:E]!mf! (G,>A,)G,[K:tenor]!<(! (C2 F)!>(! (F3 E3)!<)!!>)! | D3 (C2 D) B,3 (^A,2 B,) | %56
 G,3 z3 z3 E3 | D3 (^^F,>G,)F, G,3 (^A,2 B,) | (B,>=C)B, (E2 A) (A3 =G3) | F3 (E=G>)F =D3 (CE>)D | %60
 (B,3- B,2) A, (F,2 =G,) =G3 |[K:treble]!mf! (F>=G)F (B2 e) e3 =d3 | %62
!f! (c3- c2) B (A2 E) ^D/E/F/=G/A/B/ | (=c3- c2) B (A2 =C) B,/D/F/B/d/f/ | %64
 =g3- g2 f =d(=D>=F) (E^G)B |[M:6/8] =c(=C>E) B,3- |[M:12/8] B,3!p! ^C2 (D- D2) E ^A3 | %67
 (B3 ^^F3) (G2 D) (C^A,)B, | (B,>=C)B, (E2 A) (A2 =D) =G3 |!f! (F>=G)F (B2 e) e3 =d3 | %70
!ff! c(E>=G) (=DF)B A(=C>E) ^D/E/F/=G/A/B/ | =c(E>=G) (DF)B A(=C>E) D/F/A/B/d/f/ | %72
 =g3- g2 f =d(=D>=F) (E^G)B |[M:6/8] =c(=C>E)!>(! B,3-!>)! |[K:G][M:12/8] B,6-!p! B,2 z3 z | %75
 (G3 F3) (G3 F3) |!pp! (Bd>)(^c f2) e (d2 A) ^A2 G | %77
!f!!<(!{/F} Bd>(^c!ff! f2) e (d2 B) ^A2 F-!<)! | F3 (A3 F3) (A3 |[M:9/8] F2) G F2 A (B2 A) | %80
 (G2 E) D2 E (C2 B,) |[K:tenor] (A,2 B,) A,2 C (D2 C) | (B,2 G,) F,2 G, (E,2 D,) | %83
[K:bass] (^C,2 D,) C,2 E, (F,2 E,) | (D,2 B,,) ^A,,2 B,, (G,,2 F,,) | B,,6- B,,3- | B,,6 (E,2 G,) | %87
 (C>B,)A, (C2 B,) A,(^DE) |[K:treble] B2 B (c2 ^d) (e2 =d) |!f! (dc)G (FE)G (BA)A- | %90
 A/B,/^C/^D/E/F/ G/A/B/^c/^d/e/ f/g/a/b/^c'/^d'/ |!ff! e'2 z z3 z3 | z9 | z3 z3!ff! c3 | c3 A3 F3 | %95
 E3 e3 ^A3 | B6 (D2- D/)F/ |!pp! (F2 G) F2 A (B2 A) | (G2 E) D2 E (C2 B,) | %99
[K:tenor] (A,2 B,) A,2 C (D2 C) | (B,2 G,) F,2 G, (E,2 D,) |[K:bass] (C,2 D,) C,2 E, (F,2 E,) | %102
 (D,2 B,,) A,,2 B,, (G,,2 F,,) | B,,2 z G,,2 z F,,2 z | E,,2 z z2 z4 | z9 |] %106

